.local/share/icons/Gruvbox-Plus-Dark/panel/16/megasynching.svg

<svg xmlns="http://www.w3.org/2000/svg" width="16" height="16" version="1.1">
 <defs>
  <style id="current-color-scheme" type="text/css">
   .ColorScheme-Text { color:#ebdbb2; } .ColorScheme-Highlight { color:#458588; }
  </style>
 </defs>
 <g transform="translate(-3,-3)">
  <path style="fill:currentColor" class="ColorScheme-Text" d="M 8 1 A 7 7 0 0 0 1 8 A 7 7 0 0 0 8 15 A 7 7 0 0 0 8.0058594 15 A 5 5 0 0 1 7 12 A 5 5 0 0 1 7.4199219 10 L 7 10 L 6 8.5 L 6 11 L 4 11 L 4 5 L 6 5 L 8 8 L 10 5 L 12 5 L 12 7 A 5 5 0 0 1 15 8.0078125 A 7 7 0 0 0 15 8 A 7 7 0 0 0 8 1 z" transform="translate(3,3)"/>
 </g>
 <path class="ColorScheme-Text" d="m 15.464742,9.9993351 c -1.1045,-1.9130996 -3.551,-2.5686996 -5.4641,-1.4640996 -1.9131997,1.1045996 -2.5685997,3.5508995 -1.4640997,5.4640995 1.1044999,1.9131 3.5509997,2.5687 5.4640997,1.4641 1.9132,-1.1046 2.5686,-3.5509 1.4641,-5.4640999 z m -0.86601,0.4999999 a 3,3 0 0 1 -1.0981,4.0981 l -0.49998,-0.8661 a 2,2 0 0 0 0.73208,-2.7321 l 0.86598,-0.4999 z m -4.0981,-1.0980994 0.49998,0.8660994 a 2,2 0 0 0 -0.73208,2.7321 l -0.8659798,0.4999 A 3,3 0 0 1 10.500652,9.4012356 Z" style="fill:currentColor"/>
</svg>

<svg width="16" height="16" version="1.1" xmlns="http://www.w3.org/2000/svg">
  <defs>
    <style id="current-color-scheme" type="text/css">.ColorScheme-Text { color:#ebdbb2; } .ColorScheme-Highlight { color:#458588; } .ColorScheme-NeutralText { color:#fe8019; } .ColorScheme-PositiveText { color:#689d6a; } .ColorScheme-NegativeText { color:#fb4934; }</style>
  </defs>
  <path class="ColorScheme-Text" d="m8 1a7 7 0 0 0-7 7 7 7 0 0 0 7 7 7 7 0 0 0 0.005859 0 5 5 0 0 1-1.006-3 5 5 0 0 1 0.4199-2h-0.4199l-1-1.5v2.5h-2v-6h2l2 3 2-3h2v2a5 5 0 0 1 3 1.008 7 7 0 0 0 0-0.007812 7 7 0 0 0-7-7z" fill="currentColor"/>
  <path class="ColorScheme-Text" d="m15.46 9.999c-1.104-1.913-3.551-2.569-5.464-1.464s-2.569 3.551-1.464 5.464c1.104 1.913 3.551 2.569 5.464 1.464s2.569-3.551 1.464-5.464zm-0.866 0.5a3 3 0 0 1-1.098 4.098l-0.5-0.8661a2 2 0 0 0 0.7321-2.732l0.866-0.4999zm-4.098-1.098 0.5 0.8661a2 2 0 0 0-0.7321 2.732l-0.866 0.4999a3 3 0 0 1 1.098-4.098z" fill="currentColor"/>
</svg>
